X: 32989
T: Pretty Girls Of Mayo, The
R: reel
M: 4/4
K: Gmajor
DGFG A2de|fd (3ddd fdcA|(3GAG FG A2de|fdcA BGAF|
DGFG ABde|fd d2 fdcA|G2FGA2 de|fdcA BG G2|
~g3e fdde|fdge fddf|~g3 e fdde|fdcA BG G2|
~g3 e fdde|f2 ge fd{e}d^c|defg abag|fdcA GBAF||

